src/images/logo_ft.svg

<svg viewBox="0 0 108 21.34" xmlns="http://www.w3.org/2000/svg"><g fill="#40210f"><path d="m9.32 0-.05 2.66a8.78 8.78 0 0 1 -1.27.46 11.06 11.06 0 0 1 -1.64.32v2.49h3.55v2.47h-3.51v1.48l3.51 2.34v2.9l-3.51-2.71v8.93h-2.81v-7.1a14.15 14.15 0 0 1 -1.59 2.29 17.34 17.34 0 0 1 -2 2v-3.74a8.33 8.33 0 0 0 2.38-3 10.33 10.33 0 0 0 1.18-3.39h-3.56v-2.47h3.59v-2.27l-3.59.09v-2.49a48.82 48.82 0 0 0 6-.26 11.35 11.35 0 0 0 3.32-1zm8.61 0v8.93l-.05 1.07a11.23 11.23 0 0 0 1.69 4.75 11 11 0 0 0 3.43 3.25v3.3a14.75 14.75 0 0 1 -6.36-6.77 14.88 14.88 0 0 1 -6.64 6.81v-3.18a10.73 10.73 0 0 0 5.2-9.23v-8.93zm-4.93 3.39a38.72 38.72 0 0 0 .23 4.14 15 15 0 0 0 .72 3.39h-2.66a13.47 13.47 0 0 1 -.65-3.32c-.13-1.41-.19-2.81-.19-4.21zm9.87 0c0 1.4-.06 2.8-.19 4.21a13 13 0 0 1 -.68 3.32h-2.63a14.49 14.49 0 0 0 .72-3.39 38.72 38.72 0 0 0 .23-4.14z"/><path d="m32.1 1.78v16.55h6.15v-18.33h3.12v18.33h6.2v-16.55h3.13v19.27h-21.7v-19.27z"/><path d="m63.5 0a21.27 21.27 0 0 1 -.43 4.45 15.62 15.62 0 0 1 -1.31 3.76h.51v13.13h-2.84v-9.95a12.28 12.28 0 0 1 -2.77 1.83v-3.82a6.42 6.42 0 0 0 2.82-3.4 16 16 0 0 0 1-6zm9.41 0 .58 2h6.18v2.61h-6.15v5.46h5.71v2.58h-5.71v5.89h6.15v2.51h-15.35v-2.51h6.18v-5.89h-5.77v-2.58h5.77v-5.46h-6.18v-2.61h6.07l-.56-2z"/><path d="m94.6.38v2.62h-3.66a20.36 20.36 0 0 1 -.4 2.55 17.3 17.3 0 0 1 -.78 2.45h4.3v13.05h-7.63v-8.05c-.36.37-.64.65-.85.84a6.69 6.69 0 0 0 -.58.47v-4a9.48 9.48 0 0 0 2.21-3.31 10 10 0 0 0 .91-4h-3.12v-2.62zm-5.6 18.11h2.59v-7.95h-2.59zm19-18.11v2.68h-1.56v6.08h1.56v2.63h-1.56v9.57h-2.9v-9.57h-3.33a13.12 13.12 0 0 1 -1.21 6 8 8 0 0 1 -3.66 3.58v-3.67a4.51 4.51 0 0 0 1.53-2.14 11.13 11.13 0 0 0 .52-3.77h-1.76v-2.63h1.76v-6.08h-1.79v-2.68zm-7.76 8.76h3.3v-6.08h-3.3z"/></g></svg>

<svg viewBox="0 0 108 21.34" xmlns="http://www.w3.org/2000/svg"><g fill="#40210f"><path d="m9.32 0-.05 2.66A8.78 8.78 0 0 1 8 3.12a11.06 11.06 0 0 1-1.64.32v2.49h3.55V8.4H6.4v1.48l3.51 2.34v2.9L6.4 12.41v8.93H3.59v-7.1A14.15 14.15 0 0 1 2 16.53a17.34 17.34 0 0 1-2 2v-3.74a8.33 8.33 0 0 0 2.38-3A10.33 10.33 0 0 0 3.56 8.4H0V5.93h3.59V3.66L0 3.75V1.26A48.82 48.82 0 0 0 6 1a11.35 11.35 0 0 0 3.32-1zm8.61 0v8.93L17.88 10a11.23 11.23 0 0 0 1.69 4.75A11 11 0 0 0 23 18v3.3a14.75 14.75 0 0 1-6.36-6.77A14.88 14.88 0 0 1 10 21.34v-3.18a10.73 10.73 0 0 0 5.2-9.23V0zM13 3.39a38.72 38.72 0 0 0 .23 4.14 15 15 0 0 0 .72 3.39h-2.66a13.47 13.47 0 0 1-.65-3.32c-.13-1.41-.19-2.81-.19-4.21zm9.87 0c0 1.4-.06 2.8-.19 4.21a13 13 0 0 1-.68 3.32h-2.63a14.49 14.49 0 0 0 .72-3.39 38.72 38.72 0 0 0 .23-4.14zM32.1 1.78v16.55h6.15V0h3.12v18.33h6.2V1.78h3.13v19.27H29V1.78zM63.5 0a21.27 21.27 0 0 1-.43 4.45 15.62 15.62 0 0 1-1.31 3.76h.51v13.13h-2.84v-9.95a12.28 12.28 0 0 1-2.77 1.83V9.4A6.42 6.42 0 0 0 59.48 6a16 16 0 0 0 1-6zm9.41 0 .58 2h6.18v2.61h-6.15v5.46h5.71v2.58h-5.71v5.89h6.15v2.51H64.32v-2.51h6.18v-5.89h-5.77v-2.58h5.77V4.61h-6.18V2h6.07l-.56-2zM94.6.38V3h-3.66a20.36 20.36 0 0 1-.4 2.55A17.3 17.3 0 0 1 89.76 8h4.3v13.05h-7.63V13c-.36.37-.64.65-.85.84a6.69 6.69 0 0 0-.58.47v-4A9.48 9.48 0 0 0 87.21 7a10 10 0 0 0 .91-4H85V.38zM89 18.49h2.59v-7.95H89zM108 .38v2.68h-1.56v6.08H108v2.63h-1.56v9.57h-2.9v-9.57h-3.33a13.12 13.12 0 0 1-1.21 6 8 8 0 0 1-3.66 3.58v-3.67a4.51 4.51 0 0 0 1.53-2.14 11.13 11.13 0 0 0 .52-3.77h-1.76V9.14h1.76V3.06H95.6V.38zm-7.76 8.76h3.3V3.06h-3.3z"/></g></svg>
